X:1
T:Title
%%score { ( 1 3 ) | ( 2 4 ) }
L:1/8
Q:1/4=105
M:4/4
K:Eb
V:1 treble nm="Grand Piano"
V:3 treble 
V:2 bass 
V:4 bass 
V:1
 G3 G AG_G=G | c4 G4 | G3 G AGFE | [CEG]6 z2 | [=B,DG]3 [B,DG] [CDA][B,DG][G,B,F][G,CE] | %5
w: C.~F.~Weigle * * * * *|||||
 C4 [Ec]4 | [DB]3 [FB] B=AGA |[M:9/8] B2- [FB-] [GB-] [AB]2- [AB] z z | %8
w: |||
[M:4/4] [Ge]3 [Ge] [Ge][Ge][Bd][Ac] | [GB]4 [EG]4 | [Ge]3 [CAc] [EGB][B,EG][B,F][=A,CE] | %11
w: |||
 B2- [EB]2 A4 | G3 G AGFE | [Ec]4[K:bass][K:treble] z4 | B[Ec][B,EB][=A,E] [B,EG]2 [_A,DF]2 | %15
w: ||||
 [G,E]8 |] %16
w: |
V:2
 [E,B,E]3 [E,B,E] [E,CE][E,B,E][E,=A,E][E,B,E] | [E,A,E]4 [E,B,E]4 | %2
 [G,=B,D]3 [G,B,D] [G,B,D][G,B,D][G,B,D][G,B,] | C,6 z2 | G,,3 G,, G,,G,,G,,C, | z2 E,2 [A,,A,]4 | %6
 [B,,F,]3 [D,B,] [F,CE][F,CE][F,CE][F,CE] |[M:9/8] z2 D E F2- F z z | %8
[M:4/4] [E,B,]3 [E,B,] [E,B,][E,B,][E,C][E,D] | [E,E]4 [E,B,]4 | [E,B,]3 E, E,E,D,C, | %11
 z2[K:treble] C2 [DF]4 | [E,B,E]3 [E,B,E] [E,CE][E,B,E][E,A,D][E,G,] | A,4 [E,G,E]4 | %14
 [E,G,E][A,,A,]G,,C, B,,2 B,,2 | E,8 |] %16
V:3
 x8 | x8 | x8 | x8 | x8 | A,2 z2 z4 | x8 |[M:9/8] .[B,D]3 z3 z3 |[M:4/4] x8 | x8 | x8 | %11
 [B,D]2 z2 z4 | x8 | z2[K:bass] C,2[K:treble] B4 | x8 | x8 |] %16
V:4
 x8 | x8 | x8 | x8 | x8 | A,,4 z4 | x8 |[M:9/8] B,,6- B,, z z |[M:4/4] x8 | x8 | x8 | %11
 B,,8[K:treble] | x8 | A,,2 z2 z4 | x8 | x8 |] %16

